!!!OTL: 528a. Der Ueberlaeufer.
!!!ARE: Europa, Mitteleuropa, Deutschland, Sueddeutschland, Franken
!!!SCT: E0528
!!!TXL: @@DE
!!!YEM: Copyright 1995, estate of Helmut Schaffrath.
**kern	**text
*ICvox	*
*M4/4	*
*met(c)	*
*k[f#]	*
*G:	*
=1	=1
!LO:TX:a:t=Etwas bewegt.	!
!LO:TX:a:t=Süddeutſche Mel. vor 1808 (aus Franken 1820).	!
{4.g	Jn
8a	den
4b	Gar-
4b	-ten
=2	=2
4a	wolln
8aL	wir
8bJ	.
4g	ge-
4d}	-hen,
=3	=3
{4.b	wo
8cc	die
4dd	ro-
4dd	-then
=4	=4
4cc	Ro-
8ccL	-ſen
8ddJ	.
4b/	ſte-
4g}	-hen;
=5	=5
{4dd	da
4dd	ſtehn
4ee	Ro-
4ee	-ſen
=6	=6
4cc	gar
8ccL	ʒu
8eeJ	.
2dd}	viel,
=7	=7
{4b	gar
8bL	ʒu
8ddJ	.
2cc	viel,
=8	=8
4a	gar
8a/L	ʒu
8ccJ	.
2b}	viel,
=9	=9
{4.g	brech
8b	mir
4dd	ei-
4dd	-ne
=10	=10
8ddL	wo
8ccJ	.
4cc	ich
4b	will.
4r}	.
==	==
!!!AGN: Liebes - Lied
!!!ONB: ESAC (Essen Associative Code) Database: ERK1
!!!AMT: simple quadruple
!!!AIN: vox
!!!EED: Helmut Schaffrath
!!!EEV: 1.0
!!!GTL: Liebeslieder [Neuere (aus dem 18. bis 19. Jahrh.) - Liebeslust]
!!!URL-scan: https://rosdok.uni-rostock.de/mcrviewer/recordIdentifier/rosdok_ppn745177662/iview2/phys_0356.iview2?x=-495.639162561577&y=125.505988428602&scale=0.46294184720638526&rotation=0&layout=singlePageLayout
!!!ENC: Anna Maria Matuszewska
!!!EEV: 2024/10/12
*-	*-
